public/static/lp/bandprotocol.svg

<svg xmlns="http://www.w3.org/2000/svg" width="1080" height="289" fill="none"><g fill="#979AAD" fill-rule="evenodd" clip-path="url(#a)" clip-rule="evenodd"><path d="M344.841 105.164c-3.407 2.209-7.79 3.316-13.156 3.316h-29.89V81.96h29.251c2.895 0 5.789.389 8.686 1.169 2.896.782 5.322 2.126 7.28 4.03 1.96 1.907 2.939 4.508 2.939 7.8 0 4.596-1.705 7.995-5.11 10.205ZM301.795 44.52h27.08c4.597 0 8.474.91 11.623 2.73 3.15 1.82 4.726 4.853 4.726 9.1 0 3.814-1.492 6.76-4.47 8.841-2.983 2.078-6.431 3.163-10.345 3.248h-28.614V44.52Zm53.456 32.24a31.194 31.194 0 0 0-8.493-4.42c4.088-1.734 7.196-4.227 9.325-7.476 2.125-3.25 3.191-6.91 3.191-10.982 0-7.455-2.469-13.132-7.408-17.034C346.928 32.951 339.604 31 329.898 31H288v91h43.94c3.748 0 7.492-.41 11.24-1.235 3.748-.823 7.195-2.232 10.347-4.225 3.15-1.994 5.685-4.724 7.602-8.192 1.915-3.463 2.871-7.841 2.871-13.13 0-4.331-.808-8.015-2.426-11.048-1.62-3.032-3.726-5.502-6.323-7.41ZM409.42 86.38l9.29-21.842a175.155 175.155 0 0 0 3.483-8.97c1.116-3.12 2.279-6.325 3.485-9.62a449.422 449.422 0 0 0 3.353 9.297 608.849 608.849 0 0 0 3.357 8.774l9.548 22.361H409.42ZM418.581 31 380 122h14.322l9.42-22.1h43.873l9.29 22.1H472l-38.323-91h-15.096ZM566.948 44.52v56.037L508.142 31H495v91h14.052V54.376L567.599 122H581V31h-14.052v13.52ZM680.084 92.555c-2.216 4.81-5.692 8.668-10.426 11.571-4.734 2.905-10.88 4.355-18.437 4.355h-25.148v-63.96h25.148c7.47 0 13.596 1.474 18.373 4.42 4.776 2.945 8.274 6.847 10.49 11.7 2.214 4.853 3.322 10.14 3.322 15.858 0 5.895-1.108 11.246-3.322 16.056Zm14.983-33.541c-1.953-5.503-4.884-10.357-8.795-14.56-3.909-4.2-8.731-7.496-14.462-9.88C666.074 32.193 659.432 31 651.872 31H612v91h39.872c10.076 0 18.546-2.056 25.409-6.174 6.863-4.115 12.031-9.619 15.507-16.511C696.261 92.425 698 84.82 698 76.499c0-6.151-.978-11.98-2.933-17.485ZM329.928 211.159c2.636 0 5.08-.693 7.333-2.081a15.92 15.92 0 0 0 5.419-5.523c1.358-2.295 2.04-4.829 2.04-7.605 0-2.685-.682-5.112-2.04-7.279-1.361-2.167-3.17-3.902-5.419-5.203-2.253-1.297-4.697-1.946-7.333-1.946H302.77v29.637h27.158ZM331.587 168c4.929 0 9.477 1.235 13.643 3.705 4.162 2.47 7.499 5.808 10.009 10.009 2.504 4.204 3.761 8.952 3.761 14.236 0 5.377-1.296 10.225-3.888 14.559-2.595 4.334-6.037 7.78-10.329 10.335-4.294 2.557-9.034 3.835-14.217 3.835H302.77V259H289v-91h42.587ZM428.474 181.503h-26.771v29.987h28.929c2.958 0 5.561-.696 7.802-2.077 2.239-1.384 3.974-3.225 5.201-5.517 1.225-2.294 1.842-4.783 1.842-7.466 0-2.943-.763-5.538-2.284-7.788-1.524-2.25-3.576-4.002-6.155-5.258-2.58-1.254-5.436-1.881-8.564-1.881Zm31.212 15.055c0 5.887-1.734 11.23-5.204 16.036-3.469 4.801-7.907 8.285-13.319 10.449L464 259l-16.875-.128-21.188-33.884h-24.234v33.884H388V168h43.391c4.822 0 9.389 1.19 13.703 3.57 4.314 2.381 7.823 5.735 10.532 10.062 2.706 4.328 4.06 9.302 4.06 14.926ZM565.773 213.499c0-6.283-1.467-11.904-4.397-16.853-2.932-4.951-6.985-8.87-12.157-11.757-5.173-2.884-11.08-4.325-17.719-4.325-6.812 0-12.783 1.441-17.912 4.325-5.13 2.887-9.14 6.806-12.028 11.757-2.891 4.949-4.335 10.57-4.335 16.853 0 6.287 1.444 11.906 4.335 16.856 2.888 4.955 6.898 8.87 12.028 11.753 5.129 2.887 11.1 4.33 17.912 4.33 6.639 0 12.546-1.443 17.719-4.33 5.172-2.883 9.225-6.823 12.157-11.817 2.93-4.992 4.397-10.591 4.397-16.792Zm14.227 0c0 6.544-1.185 12.64-3.558 18.278-2.371 5.642-5.735 10.571-10.086 14.79-4.354 4.22-9.487 7.512-15.392 9.881-5.907 2.365-12.395 3.552-19.464 3.552-7.071 0-13.582-1.187-19.529-3.552-5.951-2.369-11.08-5.661-15.391-9.881-4.311-4.219-7.653-9.148-10.024-14.79-2.372-5.638-3.556-11.734-3.556-18.278 0-6.542 1.184-12.634 3.556-18.276 2.371-5.639 5.713-10.569 10.024-14.788 4.311-4.218 9.44-7.513 15.391-9.883 5.947-2.368 12.458-3.552 19.529-3.552 7.069 0 13.557 1.184 19.464 3.552 5.905 2.37 11.038 5.665 15.392 9.883 4.351 4.219 7.715 9.149 10.086 14.788 2.373 5.642 3.558 11.734 3.558 18.276ZM621.3 259v-77.478H593V168h71v13.522h-29.056V259H621.3ZM758.773 213.499c0-6.283-1.467-11.904-4.397-16.853-2.932-4.951-6.985-8.87-12.156-11.757-5.174-2.884-11.08-4.325-17.721-4.325-6.81 0-12.781 1.441-17.91 4.325-5.13 2.887-9.141 6.806-12.028 11.757-2.89 4.949-4.334 10.57-4.334 16.853 0 6.287 1.444 11.906 4.334 16.856 2.887 4.955 6.898 8.87 12.028 11.753 5.129 2.887 11.1 4.33 17.91 4.33 6.641 0 12.547-1.443 17.721-4.33 5.171-2.883 9.224-6.823 12.156-11.817 2.93-4.992 4.397-10.591 4.397-16.792Zm14.227 0c0 6.544-1.185 12.64-3.558 18.278-2.371 5.642-5.735 10.571-10.086 14.79-4.354 4.22-9.486 7.512-15.392 9.881-5.906 2.365-12.394 3.552-19.465 3.552-7.069 0-13.58-1.187-19.527-3.552-5.951-2.369-11.08-5.661-15.392-9.881-4.31-4.219-7.651-9.148-10.022-14.79-2.373-5.638-3.558-11.734-3.558-18.278 0-6.542 1.185-12.634 3.558-18.276 2.371-5.639 5.712-10.569 10.022-14.788 4.312-4.218 9.441-7.513 15.392-9.883 5.947-2.368 12.458-3.552 19.527-3.552 7.071 0 13.559 1.184 19.465 3.552 5.906 2.37 11.038 5.665 15.392 9.883 4.351 4.219 7.715 9.149 10.086 14.788 2.373 5.642 3.558 11.734 3.558 18.276ZM876.703 245.765c-2.072 2.057-4.906 4.092-8.491 6.104-3.585 2.012-7.713 3.706-12.38 5.076-4.667 1.368-9.636 2.055-14.907 2.055-6.569 0-12.702-1.093-18.407-3.276-5.704-2.185-10.695-5.291-14.973-9.316-4.278-4.026-7.604-8.888-9.98-14.586-2.381-5.694-3.565-12.054-3.565-19.08 0-6.594 1.251-12.676 3.757-18.245 2.506-5.567 5.985-10.406 10.436-14.518 4.45-4.112 9.529-7.301 15.231-9.573 5.705-2.268 11.753-3.406 18.149-3.406 5.357 0 10.392.753 15.102 2.25 4.709 1.501 8.902 3.406 12.575 5.718 3.673 2.314 6.589 4.753 8.75 7.323l-8.945 10.537a52.946 52.946 0 0 0-12.639-8.674c-4.623-2.267-9.745-3.406-15.362-3.406-5.531 0-10.803 1.286-15.815 3.857-5.012 2.569-9.094 6.253-12.251 11.049-3.153 4.799-4.73 10.494-4.73 17.088 0 7.198 1.62 13.192 4.859 17.989 3.243 4.8 7.476 8.414 12.706 10.856 5.228 2.445 10.867 3.665 16.917 3.665 6.135 0 11.448-1.178 15.946-3.534 4.491-2.355 8.208-4.82 11.145-7.389l6.872 11.436ZM977.773 213.499c0-6.283-1.47-11.904-4.397-16.853-2.933-4.951-6.985-8.87-12.16-11.757-5.173-2.884-11.08-4.325-17.716-4.325-6.812 0-12.785 1.441-17.915 4.325-5.13 2.887-9.141 6.806-12.027 11.757-2.889 4.949-4.333 10.57-4.333 16.853 0 6.287 1.444 11.906 4.333 16.856 2.886 4.955 6.897 8.87 12.027 11.753 5.13 2.887 11.103 4.33 17.915 4.33 6.636 0 12.543-1.443 17.716-4.33 5.175-2.883 9.227-6.823 12.16-11.817 2.927-4.992 4.397-10.591 4.397-16.792Zm14.227 0c0 6.544-1.188 12.64-3.556 18.278-2.375 5.642-5.737 10.571-10.091 14.79-4.354 4.22-9.484 7.512-15.389 9.881-5.907 2.365-12.398 3.552-19.464 3.552-7.073 0-13.58-1.187-19.531-3.552-5.949-2.369-11.081-5.661-15.389-9.881-4.314-4.219-7.653-9.148-10.024-14.79-2.373-5.638-3.556-11.734-3.556-18.278 0-6.542 1.183-12.634 3.556-18.276 2.371-5.639 5.71-10.569 10.024-14.788 4.308-4.218 9.44-7.513 15.389-9.883C929.92 168.184 936.427 167 943.5 167c7.066 0 13.557 1.184 19.464 3.552 5.905 2.37 11.035 5.665 15.389 9.883 4.354 4.219 7.716 9.149 10.091 14.788 2.368 5.642 3.556 11.734 3.556 18.276ZM1080 245.48V259h-63v-91h13.83v77.48H1080ZM201.994 197.37c0 24.262-19.846 43.997-44.246 43.997H72.917l88.161-87.666c22.821 1.729 40.916 20.54 40.916 43.669ZM60.407 149.734V47.774h97.341c1.664 0 3.304.09 4.92.27L60.407 149.735Zm159.278-57.957c0-20.54-10.158-38.758-25.742-49.955L236 0l-25.16.143-33.413 33.224a62.052 62.052 0 0 0-19.679-3.185H42.716v162.02L181.21 54.483c12.474 7.791 20.784 21.595 20.784 37.294 0 24.262-19.846 43.998-44.246 43.998h-3.662L0 289h25.017l30.209-30.041h102.522c34.152 0 61.937-27.629 61.937-61.589 0-22.398-12.121-41.982-30.145-52.763 18.043-10.779 30.145-30.422 30.145-52.83Z"/></g><defs><clipPath id="a"><path fill="#fff" d="M0 0h1080v289H0z"/></clipPath></defs></svg>

<svg width="1080" height="289" viewBox="0 0 1080 289" fill="none" xmlns="http://www.w3.org/2000/svg">
  <g clip-path="url(#clip0_1_2)">
  <path fill-rule="evenodd" clip-rule="evenodd" d="M344.841 105.164C341.434 107.373 337.051 108.48 331.685 108.48H301.795V81.9605H331.046C333.941 81.9605 336.835 82.349 339.732 83.1288C342.628 83.9113 345.054 85.2547 347.012 87.159C348.972 89.066 349.951 91.6667 349.951 94.9581C349.951 99.5547 348.246 102.954 344.841 105.164ZM301.795 44.5202H328.875C333.472 44.5202 337.349 45.43 340.498 47.2508C343.648 49.0703 345.224 52.1032 345.224 56.3496C345.224 60.1637 343.732 63.1104 340.754 65.1912C337.771 67.2692 334.323 68.3541 330.409 68.4389H301.795V44.5202ZM355.251 76.7606C352.654 74.8536 349.823 73.3802 346.758 72.3405C350.846 70.6058 353.954 68.1133 356.083 64.8642C358.208 61.6138 359.274 57.9543 359.274 53.8817C359.274 46.4273 356.805 40.7499 351.866 36.8483C346.928 32.9508 339.604 31 329.898 31H288V122H331.94C335.688 122 339.432 121.59 343.18 120.765C346.928 119.942 350.375 118.533 353.527 116.54C356.677 114.546 359.212 111.816 361.129 108.348C363.044 104.885 364 100.507 364 95.2181C364 90.8869 363.192 87.2028 361.574 84.1699C359.954 81.1383 357.848 78.6676 355.251 76.7606Z" fill="#979AAD"/>
  <path fill-rule="evenodd" clip-rule="evenodd" d="M409.42 86.3801L418.71 64.5378C419.914 61.6785 421.076 58.6907 422.193 55.5688C423.309 52.4483 424.472 49.243 425.678 45.9487C426.795 49.1568 427.915 52.2527 429.031 55.2446C430.149 58.2352 431.268 61.1587 432.388 64.0193L441.936 86.3801H409.42ZM418.581 31L380 122H394.322L403.742 99.8991H447.615L456.905 122H472L433.677 31H418.581Z" fill="#979AAD"/>
  <path fill-rule="evenodd" clip-rule="evenodd" d="M566.948 44.5202V60.901V100.557L508.142 31H495V44.5202V122H509.052V84.1699V54.3755L567.599 122H581V112.848V44.5202V31H566.948V44.5202Z" fill="#979AAD"/>
  <path fill-rule="evenodd" clip-rule="evenodd" d="M680.084 92.5554C677.868 97.3655 674.392 101.223 669.658 104.126C664.924 107.031 658.778 108.481 651.221 108.481H626.073V44.5204H651.221C658.691 44.5204 664.817 45.9952 669.594 48.9406C674.37 51.886 677.868 55.7877 680.084 60.6416C682.298 65.494 683.406 70.7802 683.406 76.4986C683.406 82.3936 682.298 87.7454 680.084 92.5554ZM695.067 59.0136C693.114 53.5113 690.183 48.6574 686.272 44.4548C682.363 40.2535 677.541 36.9579 671.81 34.5747C666.074 32.1916 659.432 31 651.872 31H612V122H651.872C661.948 122 670.418 119.944 677.281 115.826C684.144 111.711 689.312 106.207 692.788 99.315C696.261 92.4255 698 84.8205 698 76.4986C698 70.3479 697.022 64.5186 695.067 59.0136Z" fill="#979AAD"/>
  <path fill-rule="evenodd" clip-rule="evenodd" d="M329.928 211.159C332.564 211.159 335.008 210.466 337.261 209.078C339.51 207.693 341.319 205.852 342.68 203.555C344.038 201.26 344.72 198.726 344.72 195.95C344.72 193.265 344.038 190.838 342.68 188.671C341.319 186.504 339.51 184.769 337.261 183.468C335.008 182.171 332.564 181.522 329.928 181.522H302.77V211.159H329.928ZM331.587 168C336.516 168 341.064 169.235 345.23 171.705C349.392 174.175 352.729 177.513 355.239 181.714C357.743 185.918 359 190.666 359 195.95C359 201.327 357.704 206.175 355.112 210.509C352.517 214.843 349.075 218.289 344.783 220.844C340.489 223.401 335.749 224.679 330.566 224.679H302.77V259H289V168H331.587Z" fill="#979AAD"/>
  <path fill-rule="evenodd" clip-rule="evenodd" d="M428.474 181.503H401.703V211.49H430.632C433.59 211.49 436.193 210.794 438.434 209.413C440.673 208.029 442.408 206.188 443.635 203.896C444.86 201.602 445.477 199.113 445.477 196.43C445.477 193.487 444.714 190.892 443.193 188.642C441.669 186.392 439.617 184.64 437.038 183.384C434.458 182.13 431.602 181.503 428.474 181.503ZM459.686 196.558C459.686 202.445 457.952 207.788 454.482 212.594C451.013 217.395 446.575 220.879 441.163 223.043L464 259L447.125 258.872L425.937 224.988H401.703V258.872H388V168H431.391C436.213 168 440.78 169.19 445.094 171.57C449.408 173.951 452.917 177.305 455.626 181.632C458.332 185.96 459.686 190.934 459.686 196.558Z" fill="#979AAD"/>
  <path fill-rule="evenodd" clip-rule="evenodd" d="M565.773 213.499C565.773 207.216 564.306 201.595 561.376 196.646C558.444 191.695 554.391 187.776 549.219 184.889C544.046 182.005 538.139 180.564 531.5 180.564C524.688 180.564 518.717 182.005 513.588 184.889C508.458 187.776 504.448 191.695 501.56 196.646C498.669 201.595 497.225 207.216 497.225 213.499C497.225 219.786 498.669 225.405 501.56 230.355C504.448 235.31 508.458 239.225 513.588 242.108C518.717 244.995 524.688 246.438 531.5 246.438C538.139 246.438 544.046 244.995 549.219 242.108C554.391 239.225 558.444 235.285 561.376 230.291C564.306 225.299 565.773 219.7 565.773 213.499ZM580 213.499C580 220.043 578.815 226.139 576.442 231.777C574.071 237.419 570.707 242.348 566.356 246.567C562.002 250.787 556.869 254.079 550.964 256.448C545.057 258.813 538.569 260 531.5 260C524.429 260 517.918 258.813 511.971 256.448C506.02 254.079 500.891 250.787 496.58 246.567C492.269 242.348 488.927 237.419 486.556 231.777C484.184 226.139 483 220.043 483 213.499C483 206.957 484.184 200.865 486.556 195.223C488.927 189.584 492.269 184.654 496.58 180.435C500.891 176.217 506.02 172.922 511.971 170.552C517.918 168.184 524.429 167 531.5 167C538.569 167 545.057 168.184 550.964 170.552C556.869 172.922 562.002 176.217 566.356 180.435C570.707 184.654 574.071 189.584 576.442 195.223C578.815 200.865 580 206.957 580 213.499Z" fill="#979AAD"/>
  <path fill-rule="evenodd" clip-rule="evenodd" d="M621.3 259V181.522H593V168H664V181.522H634.944V259H621.3Z" fill="#979AAD"/>
  <path fill-rule="evenodd" clip-rule="evenodd" d="M758.773 213.499C758.773 207.216 757.306 201.595 754.376 196.646C751.444 191.695 747.391 187.776 742.22 184.889C737.046 182.005 731.14 180.564 724.499 180.564C717.689 180.564 711.718 182.005 706.589 184.889C701.459 187.776 697.448 191.695 694.561 196.646C691.671 201.595 690.227 207.216 690.227 213.499C690.227 219.786 691.671 225.405 694.561 230.355C697.448 235.31 701.459 239.225 706.589 242.108C711.718 244.995 717.689 246.438 724.499 246.438C731.14 246.438 737.046 244.995 742.22 242.108C747.391 239.225 751.444 235.285 754.376 230.291C757.306 225.299 758.773 219.7 758.773 213.499ZM773 213.499C773 220.043 771.815 226.139 769.442 231.777C767.071 237.419 763.707 242.348 759.356 246.567C755.002 250.787 749.87 254.079 743.964 256.448C738.058 258.813 731.57 260 724.499 260C717.43 260 710.919 258.813 704.972 256.448C699.021 254.079 693.892 250.787 689.58 246.567C685.27 242.348 681.929 237.419 679.558 231.777C677.185 226.139 676 220.043 676 213.499C676 206.957 677.185 200.865 679.558 195.223C681.929 189.584 685.27 184.654 689.58 180.435C693.892 176.217 699.021 172.922 704.972 170.552C710.919 168.184 717.43 167 724.499 167C731.57 167 738.058 168.184 743.964 170.552C749.87 172.922 755.002 176.217 759.356 180.435C763.707 184.654 767.071 189.584 769.442 195.223C771.815 200.865 773 206.957 773 213.499Z" fill="#979AAD"/>
  <path fill-rule="evenodd" clip-rule="evenodd" d="M876.703 245.765C874.631 247.822 871.797 249.857 868.212 251.869C864.627 253.881 860.499 255.575 855.832 256.945C851.165 258.313 846.196 259 840.925 259C834.356 259 828.223 257.907 822.518 255.724C816.814 253.539 811.823 250.433 807.545 246.408C803.267 242.382 799.941 237.52 797.565 231.822C795.184 226.128 794 219.768 794 212.742C794 206.148 795.251 200.066 797.757 194.497C800.263 188.93 803.742 184.091 808.193 179.979C812.643 175.867 817.722 172.678 823.424 170.406C829.129 168.138 835.177 167 841.573 167C846.93 167 851.965 167.753 856.675 169.25C861.384 170.751 865.577 172.656 869.25 174.968C872.923 177.282 875.839 179.721 878 182.291L869.055 192.828C865.252 189.315 861.039 186.426 856.416 184.154C851.793 181.887 846.671 180.748 841.054 180.748C835.523 180.748 830.251 182.034 825.239 184.605C820.227 187.174 816.145 190.858 812.988 195.654C809.835 200.453 808.258 206.148 808.258 212.742C808.258 219.94 809.878 225.934 813.117 230.731C816.36 235.531 820.593 239.145 825.823 241.587C831.051 244.032 836.69 245.252 842.74 245.252C848.875 245.252 854.188 244.074 858.686 241.718C863.177 239.363 866.894 236.898 869.831 234.329L876.703 245.765Z" fill="#979AAD"/>
  <path fill-rule="evenodd" clip-rule="evenodd" d="M977.773 213.499C977.773 207.216 976.303 201.595 973.376 196.646C970.443 191.695 966.391 187.776 961.216 184.889C956.043 182.005 950.136 180.564 943.5 180.564C936.688 180.564 930.715 182.005 925.585 184.889C920.455 187.776 916.444 191.695 913.558 196.646C910.669 201.595 909.225 207.216 909.225 213.499C909.225 219.786 910.669 225.405 913.558 230.355C916.444 235.31 920.455 239.225 925.585 242.108C930.715 244.995 936.688 246.438 943.5 246.438C950.136 246.438 956.043 244.995 961.216 242.108C966.391 239.225 970.443 235.285 973.376 230.291C976.303 225.299 977.773 219.7 977.773 213.499ZM992 213.499C992 220.043 990.812 226.139 988.444 231.777C986.069 237.419 982.707 242.348 978.353 246.567C973.999 250.787 968.869 254.079 962.964 256.448C957.057 258.813 950.566 260 943.5 260C936.427 260 929.92 258.813 923.969 256.448C918.02 254.079 912.888 250.787 908.58 246.567C904.266 242.348 900.927 237.419 898.556 231.777C896.183 226.139 895 220.043 895 213.499C895 206.957 896.183 200.865 898.556 195.223C900.927 189.584 904.266 184.654 908.58 180.435C912.888 176.217 918.02 172.922 923.969 170.552C929.92 168.184 936.427 167 943.5 167C950.566 167 957.057 168.184 962.964 170.552C968.869 172.922 973.999 176.217 978.353 180.435C982.707 184.654 986.069 189.584 988.444 195.223C990.812 200.865 992 206.957 992 213.499Z" fill="#979AAD"/>
  <path fill-rule="evenodd" clip-rule="evenodd" d="M1080 245.48V259H1017V168H1030.83V245.48H1080Z" fill="#979AAD"/>
  <path fill-rule="evenodd" clip-rule="evenodd" d="M201.994 197.37C201.994 221.632 182.148 241.367 157.748 241.367H72.9167L161.078 153.701C183.899 155.43 201.994 174.241 201.994 197.37ZM60.407 149.734V47.7741H157.748C159.412 47.7741 161.052 47.8634 162.668 48.0448L60.407 149.734ZM219.685 91.7766C219.685 71.2374 209.527 53.0185 193.943 41.8216L236 0L210.84 0.143498L177.427 33.3674C171.242 31.3029 164.624 30.182 157.748 30.182H42.7159V192.202L181.21 54.4833C193.684 62.2742 201.994 76.0784 201.994 91.7766C201.994 116.039 182.148 135.775 157.748 135.775H154.086L0 289H25.0166L55.2256 258.959H157.748C191.9 258.959 219.685 231.33 219.685 197.37C219.685 174.972 207.564 155.388 189.54 144.607C207.583 133.828 219.685 114.185 219.685 91.7766Z" fill="#979AAD"/>
  </g>
  <defs>
  <clipPath id="clip0_1_2">
  <rect width="1080" height="289" fill="white"/>
  </clipPath>
  </defs>
  </svg>
